material-overrides/.icons/docs.svg

<?xml version="1.0" encoding="UTF-8" standalone="no"?>
<svg
   width="22"
   height="22"
   fill="none"
   version="1.1"
   id="svg191"
   sodipodi:docname="docs.svg"
   inkscape:version="1.2.1 (9c6d41e4, 2022-07-14)"
   xmlns:inkscape="http://www.inkscape.org/namespaces/inkscape"
   xmlns:sodipodi="http://sodipodi.sourceforge.net/DTD/sodipodi-0.dtd"
   xmlns="http://www.w3.org/2000/svg"
   xmlns:svg="http://www.w3.org/2000/svg">
  <sodipodi:namedview
     id="namedview193"
     pagecolor="#ffffff"
     bordercolor="#666666"
     borderopacity="1.0"
     inkscape:showpageshadow="2"
     inkscape:pageopacity="0.0"
     inkscape:pagecheckerboard="0"
     inkscape:deskcolor="#d1d1d1"
     showgrid="false"
     inkscape:zoom="6.8787622"
     inkscape:cx="-11.848062"
     inkscape:cy="9.4493745"
     inkscape:window-width="1309"
     inkscape:window-height="430"
     inkscape:window-x="0"
     inkscape:window-y="25"
     inkscape:window-maximized="0"
     inkscape:current-layer="svg191" />
  <g
     clipPath="url(#a)"
     id="g184">
    <path
       fill="#fff"
       d="M9.901 16.289a.644.644 0 1 1-.001 1.287.644.644 0 0 1 .001-1.287Zm10.106-3.985a.644.644 0 1 1 .001-1.289.644.644 0 0 1-.001 1.289Zm0-2.636a1.994 1.994 0 0 0-1.888 2.626l-6.582 3.504A1.984 1.984 0 0 0 9.9 14.94c-.76 0-1.452.436-1.787 1.115l-5.913-3.118c-.626-.329-1.093-1.357-1.044-2.294.026-.489.195-.868.452-1.015.163-.091.36-.084.569.025l.038.021c1.568.825 6.695 3.527 6.912 3.627.333.154.518.217 1.086-.053l10.6-5.513c.156-.058.338-.208.338-.434 0-.314-.325-.437-.326-.437-.603-.29-1.53-.723-2.433-1.146-1.933-.905-4.123-1.93-5.084-2.434-.83-.434-1.499-.068-1.618.006l-.231.114C7.13 5.543 1.338 8.413 1.008 8.613c-.59.36-.955 1.076-1.003 1.964-.073 1.409.645 2.878 1.672 3.416l6.254 3.225a1.994 1.994 0 0 0 1.97 1.707 1.996 1.996 0 0 0 1.992-1.962l6.888-3.733A1.99 1.99 0 0 0 22 11.66a1.995 1.995 0 0 0-1.993-1.993"
       id="path182" />
  </g>
  <defs
     id="defs189">
    <clipPath
       id="a">
      <path
         fill="#fff"
         d="M0 0h22v22H0z"
         id="path186" />
    </clipPath>
  </defs>
</svg>

<?xml version="1.0" encoding="UTF-8" standalone="no"?>
<svg
   width="22.000107"
   height="15.849628"
   fill="none"
   version="1.1"
   id="svg191"
   xmlns="http://www.w3.org/2000/svg"
   xmlns:svg="http://www.w3.org/2000/svg">
  <g
     clipPath="url(#a)"
     id="g184"
     style="fill:#ffffff;fill-opacity:1"
     transform="translate(1.0116736e-4,-3.0753712)">
    <path
       fill="#fff"
       d="M 9.901,16.289 A 0.644,0.644 0 1 1 9.9,17.576 0.644,0.644 0 0 1 9.901,16.289 Z m 10.106,-3.985 a 0.64450019,0.64450019 0 1 1 10e-4,-1.289 0.64450019,0.64450019 0 0 1 -10e-4,1.289 z m 0,-2.636 a 1.994,1.994 0 0 0 -1.888,2.626 l -6.582,3.504 A 1.984,1.984 0 0 0 9.9,14.94 c -0.76,0 -1.452,0.436 -1.787,1.115 L 2.2,12.937 C 1.574,12.608 1.107,11.58 1.156,10.643 1.182,10.154 1.351,9.775 1.608,9.628 1.771,9.537 1.968,9.544 2.177,9.653 l 0.038,0.021 c 1.568,0.825 6.695,3.527 6.912,3.627 0.333,0.154 0.518,0.217 1.086,-0.053 l 10.6,-5.513 C 20.969,7.677 21.151,7.527 21.151,7.301 21.151,6.987 20.826,6.864 20.825,6.864 20.222,6.574 19.295,6.141 18.392,5.718 16.459,4.813 14.269,3.788 13.308,3.284 12.478,2.85 11.809,3.216 11.69,3.29 L 11.459,3.404 C 7.13,5.543 1.338,8.413 1.008,8.613 c -0.59,0.36 -0.955,1.076 -1.003,1.964 -0.073,1.409 0.645,2.878 1.672,3.416 l 6.254,3.225 a 1.994,1.994 0 0 0 1.97,1.707 1.996,1.996 0 0 0 1.992,-1.962 L 18.781,13.23 A 1.99,1.99 0 0 0 22,11.66 1.995,1.995 0 0 0 20.007,9.667"
       id="path182"
       style="fill:#ffffff;fill-opacity:1" />
  </g>
  <defs
     id="defs189" />
</svg>
